tools/download-figma-icons/icons/outlined-medium/single.svg

<svg width="24" height="24" viewBox="0 0 24 24" fill="none" xmlns="http://www.w3.org/2000/svg">
<path d="M17.8995 15.9375C17.7263 15.555 16.5816 13.2225 13.9986 12.3675C14.827 11.6475 15.3692 10.5 15.3692 9.2025C15.3692 7.0275 13.8631 5.25 12.0031 5.25C10.143 5.25 8.63691 7.02 8.63691 9.2025C8.63691 10.5 9.1791 11.6475 10.0075 12.3675C7.42449 13.215 6.27232 15.555 6.10665 15.9375C5.80543 16.47 5.38372 17.43 5.7979 18.1425C5.93345 18.3675 6.25726 18.75 6.97266 18.75H17.0259C17.7413 18.75 18.0727 18.3675 18.2007 18.1425C18.6149 17.43 18.2007 16.47 17.8919 15.9375H17.8995ZM12.0031 6.75C13.0272 6.75 13.8631 7.8525 13.8631 9.2025C13.8631 10.5525 13.0272 11.655 12.0031 11.655C10.9789 11.655 10.143 10.5525 10.143 9.2025C10.143 7.8525 10.9789 6.75 12.0031 6.75ZM7.16845 17.25C7.22117 17.0775 7.31153 16.8525 7.43202 16.65L7.4772 16.5675C7.4772 16.5675 8.78752 13.5525 12.0031 13.5525C15.2186 13.5525 16.4687 16.425 16.5289 16.5675L16.5666 16.65C16.687 16.86 16.7774 17.085 16.8301 17.2575H7.16845V17.25Z" fill="black"/>
</svg>

<svg width="24" height="24" viewBox="0 0 24 24" fill="none" xmlns="http://www.w3.org/2000/svg"><path d="M17.9 15.938c-.174-.383-1.318-2.716-3.901-3.57.828-.72 1.37-1.868 1.37-3.165 0-2.175-1.506-3.953-3.366-3.953S8.637 7.02 8.637 9.203c0 1.297.542 2.445 1.37 3.165-2.583.847-3.735 3.187-3.9 3.57-.302.532-.723 1.492-.31 2.204.136.226.46.608 1.176.608h10.053c.715 0 1.047-.383 1.175-.608.414-.712 0-1.672-.31-2.204h.009ZM12.002 6.75c1.024 0 1.86 1.103 1.86 2.453 0 1.35-.836 2.452-1.86 2.452s-1.86-1.102-1.86-2.452c0-1.35.836-2.453 1.86-2.453Zm-4.835 10.5c.053-.172.144-.398.264-.6l.045-.082s1.31-3.016 4.526-3.016c3.216 0 4.466 2.873 4.526 3.015l.038.083c.12.21.21.435.263.608H7.168v-.008Z" fill="currentColor"/></svg>
